X:59
T:The Ploughboy - Masters
C:Taken down from J. Masters, Bradstone, by H.Fl.S.
%%VWML:SBG-1-1-284-0
F:http://www.vwml.org/record/SBG/1/1/284
Z:Original Sibleius Transcription by Martin and Shan Graebe
L:1/8
M:4/4
I:linebreak $
K:D
F G | A B A F E D E F | B3/2 A/ B3/2 c/ B2 d c | B e d c B3/2 A/ B c | B4 z2 e e | 
f e d c B2 d B |$ A B A F (ED) F A | d B A F E D E F | D2 B3/2 B/ !fermata!B2 d B | 
A F E D E3/2 D/ E F | D4 z4 || 
T:The Ploughboy - Parsons
T:Taken down to this Ballad from J. Parsons by H.FL.S.
T:"same air to different metre as “No my love not I” No. CCXXVII
L:1/4
M:4/4
I:linebreak $
K:C
d | G G A B/c/ | d3/2 e/ =f e | d c A3/2 G/ | G2 z c | d d e f | g g f e |$ d2 d e | f d d/e/ f | 
g2 f e | d c d A | A2 G A | c d f e | d c A G | G2 z2 ||

